X: 61
T:Gaspe Reel
% Nottingham Music Database
S:French Canadian, via PR
M:4/4
L:1/4
K:D
d/2e/2|:"D"fe/2f/2 ed|d/2A/2B/2d/2 BA|"G"g(3f/2g/2f/2 "Em"ed|"A"B/2A/2B/2c/2 BA\
|
"D"fe/2f/2 ed|d/2A/2B/2d/2 BA|"G"g(3f/2g/2f/2 "Em"ed| [1"A"B/2A/2B/2c/2 "D"de\
:|
 [2"A"B/2A/2B/2c/2 "D"df|:"A"ef gf/2e/2|"D"f/2e/2f/2g/2 af|\
"A"ee/2f/2 g/2f/2e/2d/2|"G"c/2A/2B/2c/2 "D"BA|
"A"e/2c/2e/2f/2 g/2f/2e/2g/2|"D"f/2e/2f/2g/2 ag/2f/2|\
"A"e/2c/2e/2f/2 g/2f/2e/2d/2| [1"A"c/2A/2B/2c/2 "D"df:|[2"A"c/2A/2B/2c/2 "D"d||<end>
<start>
